lib/assets/buttons/drawer_zone_1.svg

<svg height="24" viewBox="0 0 24 24" width="24" xmlns="http://www.w3.org/2000/svg">
    <path d="m19 19h-14v-14h14m0-2h-14a2 2 0 0 0 -2 2v14a2 2 0 0 0 2 2h14a2 2 0 0 0 2-2v-14a2 2 0 0 0 -2-2m-7 14h2v-10h-4v2h2" />
</svg>

<?xml version="1.0" encoding="UTF-8" standalone="no"?>
<svg
   xmlns:dc="http://purl.org/dc/elements/1.1/"
   xmlns:cc="http://creativecommons.org/ns#"
   xmlns:rdf="http://www.w3.org/1999/02/22-rdf-syntax-ns#"
   xmlns:svg="http://www.w3.org/2000/svg"
   xmlns="http://www.w3.org/2000/svg"
   version="1.1"
   width="24"
   height="24"
   viewBox="0 0 24 24"
   id="svg4">
  <metadata
     id="metadata10">
    <rdf:RDF>
      <cc:Work
         rdf:about="">
        <dc:format>image/svg+xml</dc:format>
        <dc:type
           rdf:resource="http://purl.org/dc/dcmitype/StillImage" />
      </cc:Work>
    </rdf:RDF>
  </metadata>
  <defs
     id="defs8" />
  <path
     d="M19,19H5V5H19M19,3H5A2,2 0 0,0 3,5V19A2,2 0 0,0 5,21H19A2,2 0 0,0 21,19V5A2,2 0 0,0 19,3M12,17H14V7H10V9H12"
     id="path2" />
</svg>
